svg/bot.svg

<?xml version="1.0" encoding="UTF-8"?>
<svg xmlns="http://www.w3.org/2000/svg" xmlns:xlink="http://www.w3.org/1999/xlink" width="32" height="32" viewBox="0 0 32 32">
<path fill-rule="nonzero" fill="rgb(0%, 0%, 0%)" fill-opacity="1" d="M 16 0 C 14.941406 0.00390625 14.082031 0.863281 14.078125 1.921875 C 14.078125 2.496094 14.332031 2.992188 14.71875 3.339844 L 14.71875 5.121094 L 17.28125 5.121094 L 17.28125 3.359375 C 17.671875 3.011719 17.921875 2.507812 17.921875 1.921875 C 17.921875 0.832031 17.089844 0 16 0 M 3.839844 6.398438 L 3.839844 26.238281 L 17.742188 26.238281 L 17.28125 32 L 24.121094 26.238281 L 28.160156 26.238281 L 28.160156 6.398438 Z M 11.519531 12.160156 C 12.609375 12.160156 13.441406 12.992188 13.441406 14.078125 C 13.441406 15.167969 12.609375 16 11.519531 16 C 10.460938 15.996094 9.605469 15.136719 9.601562 14.078125 C 9.601562 12.992188 10.496094 12.160156 11.519531 12.160156 M 20.480469 12.160156 C 21.566406 12.160156 22.398438 12.992188 22.398438 14.078125 C 22.398438 15.167969 21.566406 16 20.480469 16 C 19.421875 15.996094 18.5625 15.136719 18.558594 14.078125 C 18.558594 12.992188 19.457031 12.160156 20.480469 12.160156 M 0.816406 12.164062 C 0.34375 12.117188 0 12.484375 0 13.046875 L 0 18.183594 C 0 18.828125 0.449219 19.46875 1.023438 19.660156 L 1.535156 19.789062 C 2.113281 19.984375 2.558594 19.597656 2.558594 18.953125 L 2.558594 13.816406 C 2.558594 13.171875 2.113281 12.53125 1.535156 12.402344 L 1.023438 12.210938 C 0.957031 12.1875 0.886719 12.171875 0.816406 12.164062 M 31.183594 12.164062 C 31.113281 12.171875 31.042969 12.1875 30.976562 12.207031 L 30.464844 12.402344 C 29.886719 12.53125 29.441406 13.171875 29.441406 13.816406 L 29.441406 18.953125 C 29.441406 19.597656 29.886719 19.984375 30.464844 19.789062 L 30.976562 19.660156 C 31.550781 19.46875 32 18.828125 32 18.183594 L 32 13.046875 C 32 12.484375 31.65625 12.117188 31.183594 12.164062 M 12.800781 18.558594 L 19.199219 18.558594 C 18.753906 20.03125 17.472656 21.121094 16 21.121094 C 14.527344 21.121094 13.3125 20.03125 12.800781 18.558594 M 12.800781 18.558594 "/>
</svg>

<svg role="img" viewBox="0 0 32 32" height="32" width="32" xmlns="http://www.w3.org/2000/svg"><path d="M16 0a1.928 1.928 0 0 0-1.922 1.922c0 .574.254 1.07.64 1.418v1.78h2.563V3.36c.39-.347.64-.851.64-1.437C17.922.832 17.09 0 16 0M3.84 6.398v19.84h13.902L17.282 32l6.84-5.762h4.038V6.398Zm7.68 5.762c1.09 0 1.921.832 1.921 1.918 0 1.09-.832 1.922-1.921 1.922a1.925 1.925 0 0 1-1.918-1.922c0-1.086.894-1.918 1.918-1.918m8.96 0c1.086 0 1.918.832 1.918 1.918 0 1.09-.832 1.922-1.918 1.922a1.928 1.928 0 0 1-1.921-1.922c0-1.086.898-1.918 1.921-1.918m-19.664.004c-.472-.047-.816.32-.816.883v5.137c0 .644.45 1.285 1.023 1.476l.512.13c.578.194 1.024-.192 1.024-.837v-5.137c0-.644-.446-1.285-1.024-1.414l-.512-.191a.946.946 0 0 0-.207-.047m30.368 0a1.03 1.03 0 0 0-.207.043l-.512.195c-.578.13-1.024.77-1.024 1.414v5.137c0 .645.446 1.031 1.024.836l.512-.129c.573-.19 1.023-.832 1.023-1.476v-5.137c0-.563-.344-.93-.816-.883M12.8 18.56h6.398c-.444 1.47-1.725 2.56-3.198 2.56-1.473 0-2.687-1.09-3.2-2.562m0 0"/></svg>
